!!!!SEGMENT: pl-kk--kk-i-382--081_anonim--offertorium-nro-22.krn
!!!cenid: 18xx:1583
!!!COM: Anonim
!!!COM-rismID: pe30004985
!!!CDT:
!!!CNT:
!!!OTL: Offertorium Nro 22
!!!PDT:
!!!AGN: Sacred
!!!SMS-siglum: PL-Kk
!!!SMS-shelfmark: Kk.I.382
!!!SMS-shelfwork: 067 W
!!!SMS-variant:
!!!SMS-altvar:
!!!NIFC-rismSourceID: 1001142285
!!!NIFC-islandoraID: pl-kk:6162
!!!URL-pdf-islandora: https://repozytorium.nifc.pl/islandora/object/pl-kk%3A6162/datastream/PDF/view
!!!URL-scan: https://polish.musicsources.pl/pl/lokalizacje/galeria/rekopisy/5994 @EN{Scan on Polish Music Sources Website} @PL{Skany w portalu Dziedzictwo Muzyki Polskiej w otwartym dostępie}
!!!ONB-nifc: UWAGA: obsada: S/T1, A/B1, T2, B2. Skany 0049, 0194-0195, 0121-0122, 0271
!!!AIN: 1 alto 1 bass 2 tenor
!!!key:
**kern	**text	**kern	**text	**kern	**text	**kern	**text
*part4	*part4	*part3	*part3	*part2	*part2	*part1	*part1
*staff4	*staff4	*staff3	*staff3	*staff2	*staff2	*staff1	*staff1
*Ibass	*	*Itenor	*	*Ialto	*	*Itenor	*
*I"Basso	*	*I"Tenore II	*	*I"Alto vel Basso I	*	*I"Soprano vel Tenore I	*
*I'B.	*	*I'TII	*	*I'A	*	*I'S	*
*clefF4	*	*clefC4	*	*clefC3	*	*clefC1	*
*k[f#c#]	*	*k[f#c#]	*	*k[f#c#]	*	*k[f#c#]	*
*D:	*	*D:	*	*D:	*	*D:	*
*M3/4	*	*M3/4	*	*M3/4	*	*M3/4	*
=1	=1	=1	=1	=1	=1	=1	=1
*all\right	*	*all\right	*	*all\right	*	*all\right	*
*2\right	*	*2\right	*	*2\right	*	*2\right	*
!	!	!LO:TX:a:t=Drechsler.	!	!	!	!	!
!	!	!	!	!	!	!LO:TX:a:t=P:problem=znaki f# cc#	!
!LO:TX:a:t=Nro 22.	!	!LO:TX:a:t=Nro 22.	!	!LO:TX:a:t=Nro 22.	!	!LO:TX:a:t=Nro 22.	!
2D\	Ve-	2d\	Ve-	2f#\	Ve-	2dd\	Ve-
4G\	-ni	4d\	-ni	4g\	-ni	4b\	-ni
=2	=2	=2	=2	=2	=2	=2	=2
2A\	San-	(4.d\	San-	(4.f#\	san-	(4.a\	San-
.	.	8c#\)	.	8e\)	.	8g\)	.
4B\	-cte	4d\	-cte	4d\	-cte	4f#/	-cte
=3	=3	=3	=3	=3	=3	=3	=3
2G\	Spi-	2B\	Spi-	2d\	spi-	2e/	Spi-
4A\	-ri-	4A\	-ri-	4c#\	-ri-	4a\	-ri-
=4	=4	=4	=4	=4	=4	=4	=4
2D\	-tus	2A\	-tus	2d\	-tus	2f#/	-tus
4r	.	4r	.	4r	.	4r	.
=5	=5	=5	=5	=5	=5	=5	=5
2.A\	ve-	2.c#\	ve-	2.a\	ve-	2.ee\	ve-
=6	=6	=6	=6	=6	=6	=6	=6
2A\	-ni	2c#\	-ni	2a\	-ni	2ee\	-ni
!	!	!	!	!LO:TX:b:t=V&colon;S&colon;	!	!	!
4r	.	4r	.	4r	.	4r	.
!	!	!	!	!LO:PB:g=original	!	!LO:LB:g=original	!
=7	=7	=7	=7	=7	=7	=7	=7
2.d\	ve-	2.d\	ve-	2.a\	ve-	2.ff#\	ve-
=8	=8	=8	=8	=8	=8	=8	=8
2D\	-ni	2d\	-ni	2a\	-ni	2ff#\	-ni
4r	.	4r	.	4r	.	4r	.
!LO:LB:g=original	!	!LO:LB:g=original	!	!	!	!	!
=9	=9	=9	=9	=9	=9	=9	=9
4D\	re-	4d\	re-	4a\	re-	4ff#\	re-
4E\	-ple-	4c#\	-ple-	4g\	-ple-	4ee\	-ple-
4F#\	-tu-	4d\	-tu-	4a\	-tu-	4dd\	-tu-
=10	=10	=10	=10	=10	=10	=10	=10
2G\	-o-	2d\	-o-	2a\	-o-	2cc#\	-o-
4G\	-rum	4d\	-rum	4g\	-rum	4b\	-rum
=11	=11	=11	=11	=11	=11	=11	=11
4G\	cor-	4B\	cor-	4e\	cor-	4ee\	cor-
4G\	-da	4B\	-da	4e\	-da	4ee\	-da
4G#X\	fi-	4B\	fi-	4e\	fi-	4dd\	fi-
=12	=12	=12	=12	=12	=12	=12	=12
4.A\	-de-	4.A\	-de-	4.e\	-de-	4.cc#\	-de-
8A\	-li-	8B\	-li-	8e\	-li-	8dd\	-li-
4AA/	-um	4c#\	-um	4e\	-um	4ee\	-um
=13	=13	=13	=13	=13	=13	=13	=13
4r	.	4r	.	4r	.	2.ee\	et
(4F#\	et	(4A#X\	et	2f#\	et	.	.
4G#X\)	.	4B\)	.	.	.	.	.
!	!	!	!	!LO:LB:g=original	!	!LO:LB:g=original	!
=14	=14	=14	=14	=14	=14	=14	=14
4A#X\	tu-	4c#\	tu-	4f#\	tu-	4ee\	tu-
4B\	-i	4d\	-i	4f#\	-i	4ee\	-i
4A#\	a-	4c#\	a-	4f#\	a-	4ee\	a-
=15	=15	=15	=15	=15	=15	=15	=15
4A#X\	-mo-	4c#\	-mo-	4f#\	-mo-	4ee\	-mo-
4B\	-ris	4d\	-ris	(8f#\L	-ris	(8dd\L	-ris
.	.	.	.	8e\J)	.	8cc#\J)	.
4D\	in	4B\	in	(8f#\L	in	(8dd\L	in
.	.	.	.	8d\J)	.	8b\J)	.
!LO:LB:g=original	!	!LO:LB:g=original	!	!	!	!	!
=16	=16	=16	=16	=16	=16	=16	=16
2.E\	e-	(4c#\	e-	(4c#\	e-	(8a\L	e-
.	.	.	.	.	.	8b\J	.
.	.	4A\	.	4e\	.	4.cc#\	.
.	.	4G#X\)	.	4d\)	.	.	.
.	.	.	.	.	.	8b\)	.
=17	=17	=17	=17	=17	=17	=17	=17
2AA/	-is	2A\	-is	2c#\	-is	2a\	-is
4r	.	4r	.	4r	.	4r	.
=18	=18	=18	=18	=18	=18	=18	=18
4A\	i-	4e\	ig-	4a\	i-	4cc#\	i-
4A\	-gnem	4e\	-nem	4a\	-gnem	4cc#\	-gnem
4A\	ac-	4e\	ac-	4a\	ac-	4cc#\	ac-
=19	=19	=19	=19	=19	=19	=19	=19
4A\	-cen-	4e\	-cen-	4a\	-cen-	4cc#\	-cen-
4A\	-de	4c#\	-de	4a\	-de	4a\	-de
4r	.	4r	.	4r	.	4r	.
!	!	!	!	!LO:LB:g=original	!	!LO:LB:g=original	!
=20	=20	=20	=20	=20	=20	=20	=20
4d\	i-	4f#\	ig-	4a\	ig-	4dd\	ig-
4d\	-gnem	4f#\	-nem	4a\	-nem	4dd\	-nem
4d\	ac-	4f#\	ac-	4a\	ac-	4dd\	ac-
=21	=21	=21	=21	=21	=21	=21	=21
4d\	-cen-	4f#\	-cen-	4a\	-cen-	4dd\	-cen-
4D\	-de	4d\	-de	4a\	-de	4ff#\	-de
4r	.	4r	.	4r	.	4r	.
=22	=22	=22	=22	=22	=22	=22	=22
4B-X\	qui	4d\	qui	4fn\	qui	4dd\	qui
8B-\	per	8d\	per	8f\	per	8dd\	per
8B-\	di-	8d\	di-	8f\	di-	8dd\	di-
8B-\	-ver-	8B-X\	-ver-	8f\	-ver-	8dd\	-ver-
8B-\	-si-	8d\	-si-	8f\	-si-	8dd\	-si-
!LO:LB:g=original	!	!LO:LB:g=original	!	!	!	!	!
=23	=23	=23	=23	=23	=23	=23	=23
4A\	-ta-	4cn\	-ta-	4fn\	-ta-	4ffn\	-ta-
4A\	-tem	4c\	-tem	4f\	-tem	4ccn\	-tem
4r	.	4r	.	4r	.	4r	.
=24	=24	=24	=24	=24	=24	=24	=24
4G\	lin-	4B-X\	lin-	4e-X\	lin-	4b-X\	lin-
4G\	-qua-	4B-\	-qua-	4e-\	-qua-	4b-\	-qua-
!	!	!	!	!LO:LB:g=original	!	!	!
8G\	-rum	8B-\	-rum	8e-X\	-rum	8b-\	-rum
8G\	tu-	8B-\	cun-	8e-\	cun-	8b-\	cun-
!	!	!	!	!	!	!LO:LB:g=original	!
=25	=25	=25	=25	=25	=25	=25	=25
4Fn\	-a-	4d\	-cta-	4fn\	-cta-	4a\	-cta-
4F\	-rum	4d\	-rum	4f\	-rum	4a\	-rum
4r	.	4r	.	4r	.	4r	.
=26	=26	=26	=26	=26	=26	=26	=26
4E-X\	lin-	4B-X\	lin-	4g\	lin-	4g\	lin-
4E-\	-qua-	4B-\	-qua-	4g\	-qua-	4g\	-qua-
8D\	-rum	8d\	-rum	8fn\	-rum	8b-X\	-rum
8Cn/	cun-	8fn\	cun-	8e-X\	cun-	8b-\	cun-
=27	=27	=27	=27	=27	=27	=27	=27
4BB-X/	-cta-	(8.fn\L	-cta-	(8.d\L	-cta-	(8.b-X\L	-cta-
.	.	16e-X\Jk)	.	16e-X\Jk)	.	16ccn\Jk)	.
4B-X\	-rum	4d\	-rum	4fn\	-rum	4dd\	-rum
4r	.	4r	.	4r	.	4r	.
!LO:LB:g=original	!	!	!	!	!	!	!
=28	=28	=28	=28	=28	=28	=28	=28
4B-X\	gen-	4d\	gen-	4fn\	gen-	4dd\	gen-
8B-\	-tes	8B-X\	-tes	8f\	-tes	8dd\	-tes
8B-\	in	8d\	in	8f\	in	8dd\	in
!	!	!LO:LB:g=original	!	!LO:LB:g=original	!	!	!
8A\	u-	8d\	u-	8fn\	u-	8dd\	u-
8A\	-ni-	8d\	-ni-	8f\	-ni-	8dd\	-ni-
!	!	!	!	!	!	!LO:LB:g=original	!
=29	=29	=29	=29	=29	=29	=29	=29
4G#X\	-ta-	(8d\L	-ta-	(8fn\L	-ta-	(8dd\L	-ta-
.	.	8en\J)	.	8en\J)	.	8cc#X\J)	.
4Gn\	-te	4A\	-te	4e\	-te	4cc#\	-te
4r	.	4r	.	4r	.	4r	.
=30	=30	=30	=30	=30	=30	=30	=30
4.F#X\	fi-	4.A\	fi-	4.d\	fi-	4.dd\	fi-
8F#\	-de-	8A\	-de-	8d\	-de-	8dd\	-de-
4G#X\	-i	4Bn\	-i	4e\	-i	4dd\	-i
=31	=31	=31	=31	=31	=31	=31	=31
2A\	con-	(8A\L	con-	4r	.	(8cc#\L	con-
.	.	8B\	.	.	.	8dd\	.
.	.	8B#X\	.	4r	.	8dd#X\	.
.	.	8c#\J)	.	.	.	8ee\J)	.
4D\	-gre-	(8dn\L	-gre-	8f#X\	con	(8ff#X\L	-gre-
.	.	8B#\J)	.	8f#\	gre-	8dd#\J)	.
=32	=32	=32	=32	=32	=32	=32	=32
2.E\	-gas-	(4A\	-gas-	2.e\	-gas-	(4cc#\	-gas-
.	.	4c#\	.	.	.	4ee\	.
.	.	4d\)	.	.	.	4g#X\)	.
=33	=33	=33	=33	=33	=33	=33	=33
2AA/	-ti	2c#\	-ti	2e\	-ti	2a\	-ti
4r	.	4r	.	4r	.	4r	.
!LO:LB:g=original	!	!	!	!	!	!	!
=34	=34	=34	=34	=34	=34	=34	=34
2A\	ve-	4r	.	4r	.	4a\	ve-
.	.	4c#\	ve-	4a\	ve-	4e/	-ni
4AA/	-ni	4c#\	-ni	4e\	-ni	4r	.
!	!	!	!	!LO:LB:g=original	!	!LO:LB:g=original	!
=35	=35	=35	=35	=35	=35	=35	=35
2A\	ve-	4r	.	4r	.	4cc#\	ve-
.	.	4e\	ve-	4cc#\	ve-	4a\	-ni
4A\	-ni	4c#\	-ni	4a\	-ni	4r	.
!	!	!LO:LB:g=original	!	!	!	!	!
=36	=36	=36	=36	=36	=36	=36	=36
2Gn\	San-	4r	.	2a\	San-	2ee\	San-
.	.	4c#\	San-	.	.	.	.
4G\	-cte	4c#\	-cte	4a\	-cte	4cc#\	-cte
=37	=37	=37	=37	=37	=37	=37	=37
4.F#X\	Spi-	4.d\	Spi-	4.a\	spi-	4.dd\	spi-
8D\	-ri-	8d\	-ri-	8f#\	-ri-	8a\	-ri-
4D\	-tus	4d\	-tus	4f#\	-tus	4a\	-tus
=38	=38	=38	=38	=38	=38	=38	=38
2AA/	ve-	(4.A\	ve-	(4f#\	ve-	(4a\	ve-
.	.	.	.	4e\)	.	4g\)	.
.	.	8c#\)	.	.	.	.	.
4A\	-ni	4d\	-ni	4d\	-ni	4f#/	-ni
=39	=39	=39	=39	=39	=39	=39	=39
4A\	ve-	4A\	ve-	4d\	ve-	4f#/	ve-
4AA/	-ni	4A\	-ni	4c#\	-ni	4e/	-ni
4r	.	4r	.	4r	.	4r	.
=40	=40	=40	=40	=40	=40	=40	=40
4D\	qui	4A\	qui	4f#\	qui	4dd\	qui
8D\	per	8A\	per	8f#\	per	8dd\	per
8D\	di-	8A\	di-	8f#\	di-	8dd\	di-
!LO:LB:g=original	!	!	!	!	!	!LO:LB:g=original	!
8D\	-ver-	8d\	-ver-	8f#\	-ver-	8dd\	-ver-
8D\	-si-	8d\	-si-	8f#\	-si-	8dd\	-si-
!	!	!	!	!LO:LB:g=original	!	!	!
=41	=41	=41	=41	=41	=41	=41	=41
4D\	-ta-	(8d\L	-ta-	(8f#\L	-ta-	(8dd\L	-ta-
.	.	8e\J)	.	8g\J)	.	8cc#\J)	.
4D\	-tem	4e\	-tem	4g\	-tem	4cc#\	-tem
8r	.	8r	.	8r	.	8r	.
8D\	lin-	8A\	lin-	8g\	lin-	8cc#\	lin-
!	!	!LO:LB:g=original	!	!	!	!	!
=42	=42	=42	=42	=42	=42	=42	=42
4D\	-qua-	4A\	-qua-	4f#\	-qua-	4dd\	-qua-
4D\	-rum	4A\	-rum	4f#\	-rum	4dd\	-rum
4D\	cun-	4d\	cun-	4f#\	cun-	4dd\	cun-
=43	=43	=43	=43	=43	=43	=43	=43
4D\	-cta-	(8d\L	-cta-	(8f#\L	-cta-	(8dd\L	-cta-
.	.	8e\J)	.	8g\J)	.	8cc#\J)	.
4D\	-rum	4e\	-rum	4g\	-rum	4cc#\	-rum
4r	.	4r	.	4r	.	4r	.
=44	=44	=44	=44	=44	=44	=44	=44
4D\	gen-	4d\	gen-	4a\	gen-	4ff#\	gen-
8D\	-tes	8d\	-tes	8a\	-tes	8ff#\	-tes
8D\	in	8d\	in	8a\	in	8ff#\	in
!	!	!	!	!	!	!LO:LB:g=original	!
8F#\	u-	8d\	u-	8a\	u-	8dd\	u-
8F#\	-ni-	8d\	-ni-	8a\	-ni-	8dd\	-ni-
!LO:LB:g=original	!	!	!	!	!	!	!
=45	=45	=45	=45	=45	=45	=45	=45
4G\	-ta-	4d\	-ta-	4g\	-ta-	4b\	-ta-
4G\	-te	4B\	-te	4g\	-te	4dd\	-te
4r	.	4r	.	4r	.	4r	.
!	!	!	!	!LO:LB:g=original	!	!	!
=46	=46	=46	=46	=46	=46	=46	=46
4E\	gen-	4e\	gen-	4b\	gen-	4gg\	gen-
8E\	-tes	8e\	-tes	8b\	-tes	8gg\	-tes
8E\	in	8e\	in	8b\	in	8gg\	in
8G\	u-	8e\	u-	8b\	u-	8ee\	u-
8G\	-ni-	8e\	-ni-	8b\	-ni-	8ee\	-ni-
!	!	!LO:LB:g=original	!	!	!	!	!
=47	=47	=47	=47	=47	=47	=47	=47
2A\	-ta-	2cn\	-ta-	2f#\	-ta-	2dd#X\	-ta-
8G#X\	-te,	8B\	-te	8e\	-te	8ee\	-te
8r	.	8r	.	8r	.	8r	.
=48	=48	=48	=48	=48	=48	=48	=48
4.Gn\	fi-	4.e\	fi-	4.a\	fi-	4.cc#\	fi-
8G\	-de-	8e\	-de-	8a\	-de-	8cc#\	-de-
!LO:TX:a:t=P:problem=pojedyncza kreska taktowa	!	!	!	!	!	!LO:TX:a:t=P:problem=pojedyncza kreska taktowa	!
!	!	!	!	!LO:TX:b:t=V&colon;S&colon;	!	!	!
4F#;\	-i	4d;\	-i,	4a;\	-i	4dd;\	-i
!	!	!	!	!LO:PB:g=original	!	!LO:LB:g=original	!
=49||	=49||	=49||	=49||	=49||	=49||	=49||	=49||
4cn\	in	4cn\	in	4ccn\	in	4ccn\	in
8c\	u-	8c\	u-	8cc\	u-	8cc\	u-
8c\	-ni-	8c\	-ni-	8cc\	-ni-	8cc\	-ni-
!LO:LB:g=original	!	!	!	!	!	!	!
8cn\	-ta-	8c\	-ta-	8cc\	-ta-	8cc\	-ta-
8c\	-te	8c\	-te	8cc\	-te	8cc\	-te
=50	=50	=50	=50	=50	=50	=50	=50
4.cn\	fi-	4.d\	fi-	4.a\	fi-	4.ff#\	fi-
8c\	-de-	8d\	-de-	8a\	-de-	8ff#\	-de-
!	!	!LO:TX:b:t=V&colon;S&colon;	!	!	!	!	!
4B\	-i	4d\	-i,	4g\	-i	4gg\	-i
!	!	!LO:PB:g=original	!	!	!	!	!
=51	=51	=51	=51	=51	=51	=51	=51
!	!	!	!	!LO:SIC:v:l:s=con-	!	!	!
8B\	con-	8d\	con-	8g\	gon-	8gg\	con-
8B\	-gre-	8d\	-gre-	8g\	-gre-	8gg\	-gre-
2A\	-gas-	(4d\	-ga-	2a\	-gas-	2ee\	-gas-
.	.	4c#X\)	.	.	.	.	.
=52	=52	=52	=52	=52	=52	=52	=52
8D\	-ti	8d\	-sti	4g\	-ti	8dd\	-ti
8F#\	al-	8F#/	al-	.	.	8a\	al-
8G\	-le-	8G/	-le-	4r	.	8b\	-le-
8A\	-lu-	8A\	-lu-	.	.	8cc#\	-lu-
8B\	-ja	8B\	-ja	4r	.	8dd\	-ja
8c#\	al-	8c#\	al-	.	.	8ee\	al-
!	!	!	!	!	!	!LO:LB:g=original	!
=53	=53	=53	=53	=53	=53	=53	=53
!	!	!	!	!LO:TX:a:t=1.	!	!	!
8.d\	-le-	8.d\	-le-	2.r	.	8.ff#\	-le-
16e\	-lu-	16e\	-lu-	.	.	16gg\	-lu-
4f#\	-ja	4f#\	-ja	.	.	4aa\	-ja
!LO:TX:b:t=V&colon;S&colon;	!	!	!	!	!	!	!
4r	.	4r	.	.	.	4r	.
!LO:PB:g=original	!	!	!	!	!	!	!
=54	=54	=54	=54	=54	=54	=54	=54
2A\	al-	2d\	al-	2a\	al-	2ff#\	al-
4A\	-le-	4d\	-le-	4a\	-le-	4ff#\	-le-
=55	=55	=55	=55	=55	=55	=55	=55
(2A\	-lu-	(2d\	-lu-	2.a\	-lu-	2.aa 2.a\	-lu-
4AA/)	.	4c#\)	.	.	.	.	.
!	!	!	!	!LO:LB:g=original	!	!	!
=56	=56	=56	=56	=56	=56	=56	=56
8D\	-ja	8d\	-ja	4b\	-ia	8ff#\	-ja
8F#\	al-	8F#/	al-	.	.	8a\	al-
!	!	!LO:LB:g=original	!	!	!	!	!
8G\	-le-	8G/	-le-	4r	.	8b\	-le-
8A\	-lu-	8A\	-lu-	.	.	8cc#\	-lu-
8B\	-ja	8B\	-ja	4r	.	8dd\	-ja
8c#\	al-	8c#\	al-	.	.	8ee\	al-
=57	=57	=57	=57	=57	=57	=57	=57
!	!	!	!	!LO:TX:a:t=1.	!	!	!
8.d\	-le-	8.d\	-le-	2.r	.	8.ff#\	-le-
16e\	-lu-	16e\	-lu-	.	.	16gg\	-lu-
4f#\	-ja	4f#\	-ja	.	.	4aa\	-ja
4r	.	4r	.	.	.	4r	.
!	!	!	!	!	!	!LO:LB:g=original	!
=58	=58	=58	=58	=58	=58	=58	=58
(4A\	al-	(4d\	al-	(4f#\	al-	(4a\	al-
4F#\)	.	4A\)	.	4a\)	.	4dd\)	.
4D\	-le-	4d\	-le-	4a\	-le-	4ff#\	-le-
=59	=59	=59	=59	=59	=59	=59	=59
2.A\	-lu-	(2d\	-li-	2.a\	-lu-	2.ee\	-lu-
.	.	4c#\)	.	.	.	.	.
=60	=60	=60	=60	=60	=60	=60	=60
4D\	-ja	4d\	-ja	4a\	-ja	4ff#\	-ja
8r	.	8r	.	8r	.	8r	.
8D\	al-	8d\	al-	8a\	al-	8ff#\	al-
8.A\	-le-	8.c#\	-le-	8.a\	-le-	8.ee\	-le-
16A\	-lu-	16c#\	-lu-	16a\	-lu-	16ee\	-lu-
!LO:LB:g=original	!	!	!	!	!	!	!
=61	=61	=61	=61	=61	=61	=61	=61
4d\	-ja	4d\	-ja	4a\	-ja	4ff#\	-ja
8r	.	8r	.	8r	.	8r	.
8d\	al-	8d\	al-	8a\	al-	8ff#\	al-
8.A\	-le-	8.c#\	-le-	8.a\	-le-	8.ee\	-le-
16A\	-lu-	16c#\	-lu-	16a\	-lu-	16ee\	-lu-
=62	=62	=62	=62	=62	=62	=62	=62
2.D;\	-ja.-	2.d;\	-ja.	2.f#;\	-ja.-	2.dd\	-ja.
==	==	==	==	==	==	==	==
*-	*-	*-	*-	*-	*-	*-	*-
!!!system-decoration: [(s1,s2,s3,s4)]
!!!ENC: Marta Lawrence
!!!END: 2021-02-13
!!!ENC: Berenika Jozajtis
!!!END: 2021-02-01
